Numix-GalliumOS/32/mimetypes/application-pdf.svg

<?xml version="1.0" encoding="UTF-8" standalone="no"?>
<svg
   xmlns:dc="http://purl.org/dc/elements/1.1/"
   xmlns:cc="http://creativecommons.org/ns#"
   xmlns:rdf="http://www.w3.org/1999/02/22-rdf-syntax-ns#"
   xmlns:svg="http://www.w3.org/2000/svg"
   xmlns="http://www.w3.org/2000/svg"
   xmlns:sodipodi="http://sodipodi.sourceforge.net/DTD/sodipodi-0.dtd"
   xmlns:inkscape="http://www.inkscape.org/namespaces/inkscape"
   width="32"
   height="32"
   viewBox="0 0 32 32"
   id="svg2"
   version="1.1"
   inkscape:version="0.48.5 r10040"
   sodipodi:docname="application-pdf.svg">
  <metadata
     id="metadata22">
    <rdf:RDF>
      <cc:Work
         rdf:about="">
        <dc:format>image/svg+xml</dc:format>
        <dc:type
           rdf:resource="http://purl.org/dc/dcmitype/StillImage" />
      </cc:Work>
    </rdf:RDF>
  </metadata>
  <defs
     id="defs20" />
  <sodipodi:namedview
     pagecolor="#ffffff"
     bordercolor="#666666"
     borderopacity="1"
     objecttolerance="10"
     gridtolerance="10"
     guidetolerance="10"
     inkscape:pageopacity="0"
     inkscape:pageshadow="2"
     inkscape:window-width="1280"
     inkscape:window-height="970"
     id="namedview18"
     showgrid="false"
     inkscape:zoom="7.375"
     inkscape:cx="16"
     inkscape:cy="16"
     inkscape:window-x="0"
     inkscape:window-y="0"
     inkscape:window-maximized="1"
     inkscape:current-layer="svg2" />
  <path
     style="fill:#df1818;fill-opacity:1"
     d="M 5.335888,2.97e-4 C 4.648414,3.12e-4 4,0.676788 4,1.394032 L 4,30.606268 C 4,31.282757 4.687474,32 5.335888,32 l 21.327332,0 c 0.648414,0 1.335888,-0.717243 1.335888,-1.393732 L 28,9.0000001 19,0 z"
     id="path4-1"
     inkscape:connector-curvature="0"
     sodipodi:nodetypes="ssssssccs" />
  <path
     style="fill:#000000;fill-opacity:0.19599998"
     d="M 21,9.0000001 28,16 28,9.0000001 z"
     id="path6-4"
     inkscape:connector-curvature="0"
     sodipodi:nodetypes="cccc" />
  <path
     style="fill:#ffffff;fill-opacity:0.39200003"
     d="m 19.000306,2.97e-4 8.991594,8.9997031 -7.613262,0 c -0.672951,0 -1.378332,-0.7134896 -1.378332,-1.3864402 z"
     id="path8-6"
     inkscape:connector-curvature="0"
     sodipodi:nodetypes="ccssc" />
  <path
     style="fill:#ffffff"
     inkscape:connector-curvature="0"
     id="path12"
     d="m 15.6875,10.675781 c 0,0 0.460938,4.246094 -2.792969,9.855469 C 9.640625,26.136719 8.683594,25.382812 8.34375,25.191406 8,24.996094 7.558594,24.363281 9.003906,23.101562 c 1.441406,-1.261718 2.003906,-1.238281 2.003906,-1.238281 0,0 -1.320312,0.800781 -1.832031,1.578125 -0.515625,0.777344 -0.929687,1.261719 -0.808593,1.480469 0.121093,0.21875 1.597656,-0.894531 2.207031,-1.839844 0.972656,-1.503906 2.808593,-4.300781 3.664062,-6.96875 0.855469,-2.671875 1.449219,-5.4375 1.449219,-5.4375 z" />
  <path
     style="fill:#ffffff"
     inkscape:connector-curvature="0"
     id="path14"
     d="m 23.707031,20.503906 c 0,0 -0.07422,0.195313 -0.929687,0.125 C 21.921875,20.554688 18.59375,19.511719 16.808594,17.375 15.023438,15.238281 14.875,12.300781 14.753906,10.773438 c -0.125,-1.527344 0.554688,-1.101563 0.652344,-0.910157 0.152344,0.128907 0.226562,0.546875 0.226562,0.546875 0,0 -0.05469,-0.625 -0.324218,-0.894531 C 15.039062,9.25 14.800781,9.246094 14.53125,9.707031 c -0.269531,0.460938 -0.390625,1.746094 -0.171875,2.984375 0.222656,1.238282 1.128906,4.078125 2.253906,5.386719 1.125,1.3125 3.375,2.453125 5.039063,2.792969 1.664062,0.339844 2.054687,-0.363282 2.054687,-0.363282 z" />
  <path
     style="fill:#ffffff"
     inkscape:connector-curvature="0"
     id="path16"
     d="m 12.867188,21.0625 c 0,0 3.230468,-1.042969 6.289062,-1.332031 3.058594,-0.292969 4.113281,0.02344 4.378906,0.242187 0.269532,0.21875 0.269532,0.460938 0.269532,0.460938 0,0 0.34375,-0.339844 0.117187,-0.683594 -0.191406,-0.359375 -0.484375,-0.652344 -2.90625,-0.578125 -2.421875,0.07031 -2.59375,0.167969 -4.820313,0.582031 -2.226562,0.414063 -3.328124,1.308594 -3.328124,1.308594 z" />
</svg>

<svg xmlns="http://www.w3.org/2000/svg" viewBox="0 0 32 32">
 <path d="m 5.336 0 c -0.687 0 -1.336 0.676 -1.336 1.394 l 0 29.21 c 0 0.676 0.687 1.394 1.336 1.394 l 21.327 0 c 0.648 0 1.336 -0.717 1.336 -1.394 l 0.001 -21.606 -9 -9 z" style="fill:#df1818;fill-opacity:1"/>
 <path d="m 21 9 7 7 0 -7 z" style="fill:#000;fill-opacity:0.196"/>
 <path d="m 19 0 8.992 9 -7.613 0 c -0.673 0 -1.378 -0.713 -1.378 -1.386 z" style="fill:#fff;fill-opacity:0.392"/>
 <path d="m 15.688 10.676 c 0 0 0.461 4.246 -2.793 9.855 c -3.254 5.605 -4.211 4.852 -4.551 4.66 -0.344 -0.195 -0.785 -0.828 0.66 -2.09 c 1.441 -1.262 2 -1.238 2 -1.238 0 0 -1.32 0.801 -1.832 1.578 -0.516 0.777 -0.93 1.262 -0.809 1.48 0.121 0.219 1.598 -0.895 2.207 -1.84 0.973 -1.504 2.809 -4.301 3.664 -6.969 0.855 -2.672 1.449 -5.438 1.449 -5.438 z" style="fill:#fff"/>
 <path d="m 23.707 20.504 c 0 0 -0.074 0.195 -0.93 0.125 c -0.855 -0.074 -4.184 -1.117 -5.969 -3.254 -1.785 -2.137 -1.934 -5.074 -2.055 -6.602 c -0.125 -1.527 0.555 -1.102 0.652 -0.91 0.152 0.129 0.227 0.547 0.227 0.547 0 0 -0.055 -0.625 -0.324 -0.895 c -0.27 -0.266 -0.508 -0.27 -0.777 0.191 c -0.27 0.461 -0.391 1.746 -0.172 2.984 0.223 1.238 1.129 4.078 2.254 5.387 1.125 1.313 3.375 2.453 5.04 2.793 1.664 0.34 2.055 -0.363 2.055 -0.363 z" style="fill:#fff"/>
 <path d="m 12.867 21.06 c 0 0 3.23 -1.043 6.289 -1.332 3.059 -0.293 4.113 0.023 4.379 0.242 0.27 0.219 0.27 0.461 0.27 0.461 0 0 0.344 -0.34 0.117 -0.684 -0.191 -0.359 -0.484 -0.652 -2.906 -0.578 -2.422 0.07 -2.594 0.168 -4.82 0.582 -2.227 0.414 -3.328 1.309 -3.328 1.309 z" style="fill:#fff"/>
</svg>
